X: 8842
T: Cuilin Ui Chaoimh
R: jig
M: 6/8
K: Dmajor
B/c/dB BAF|Add dFA|B/c/dB BAF|AFE EFA|
B/c/dB BAF|Add dAF|~G3 FAF|1 EFE DFA:|2 EFE D2z||
DFA d2e|fdf ecA|geg fdB|AFA B3|
Adf ~a3|baf a2f|gfe fdB|AFA B2g|
fdd d2e|fdf ecA|~g3 fdB|AFA B3|
Adf ~a3|baf a2f|gfe fdB|AFA B2z||

